X:1
T:Finnish Polka
M:2/4
L:1/8
R:polka
K:Bmin
|: B2 Bc | dB Bd | cA Ac | d/c/B/A/ BF |
B2 Bc | dB B2 | ef/e/ dc | BA B2 :|
|: f2 df | ec cd | ef/e/ dc | Bc de |

